icons/svg/weather-snowy.svg

﻿<?xml version="1.0" encoding="utf-8"?>
<!DOCTYPE svg PUBLIC "-//W3C//DTD SVG 1.1//EN" "http://www.w3.org/Graphics/SVG/1.1/DTD/svg11.dtd">
<svg xmlns="http://www.w3.org/2000/svg" xmlns:xlink="http://www.w3.org/1999/xlink" version="1.1" baseProfile="full" width="24" height="24" viewBox="0 0 24.00 24.00" enable-background="new 0 0 24.00 24.00" xml:space="preserve">
	<path fill="#000000" fill-opacity="1" stroke-width="0.2" stroke-linejoin="round" d="M 6,14C 6.55229,14 7,14.4477 7,15C 7,15.5523 6.55228,16 6,16C 3.23858,16 1,13.7614 1,11C 1,8.23919 3.23758,6.00099 5.99817,6C 6.97773,3.65105 9.29605,2.00001 12,2.00001C 15.4328,2.00001 18.2441,4.66115 18.4835,8.03304L 19,8C 21.2091,8 23,9.79086 23,12C 23,14.2091 21.2091,16 19,16L 18,16C 17.4477,16 17,15.5523 17,15C 17,14.4477 17.4477,14 18,14L 19,14C 20.1046,14 21,13.1046 21,12C 21,10.8954 20.1046,10 19,10L 17,10L 17,9C 17,6.23858 14.7614,4 12,4C 9.51284,4 7.44982,5.816 7.06456,8.19437C 6.73372,8.06877 6.37489,8 6,8C 4.34315,8 3,9.34315 3,11C 3,12.6569 4.34315,14 6,14 Z M 7.87748,18.0694L 10.0682,17.4824L 8.46447,15.8787C 8.07395,15.4882 8.07395,14.855 8.46447,14.4645C 8.85499,14.0739 9.48816,14.0739 9.87868,14.4645L 11.4824,16.0681L 12.0693,13.8775C 12.2123,13.344 12.7606,13.0274 13.2941,13.1704C 13.8276,13.3133 14.1441,13.8617 14.0012,14.3951L 13.4142,16.5858L 15.6049,15.9988C 16.1383,15.8559 16.6867,16.1724 16.8296,16.7059C 16.9726,17.2394 16.656,17.7877 16.1225,17.9307L 13.9319,18.5176L 15.5355,20.1213C 15.9261,20.5118 15.9261,21.145 15.5355,21.5355C 15.145,21.9261 14.5118,21.9261 14.1213,21.5355L 12.5176,19.9318L 11.9306,22.1225C 11.7877,22.656 11.2394,22.9726 10.7059,22.8296C 10.1724,22.6867 9.85585,22.1383 9.99879,21.6049L 10.5858,19.4142L 8.39511,20.0012C 7.86165,20.1441 7.31331,19.8276 7.17037,19.2941C 7.02743,18.7606 7.34401,18.2123 7.87748,18.0694 Z "/>
</svg>

<svg xmlns="http://www.w3.org/2000/svg" version="1.1" baseProfile="full" width="24" height="24" viewBox="0 0 24.00 24.00" xml:space="preserve"><path fill="#000" fill-opacity="1" stroke-width=".2" stroke-linejoin="round" d="M6 14c.552 0 1 .448 1 1s-.448 1-1 1c-2.76 0-5-2.24-5-5s2.238-5 4.998-5C6.978 3.65 9.296 2 12 2c3.433 0 6.244 2.66 6.483 6.033L19 8c2.21 0 4 1.79 4 4s-1.79 4-4 4h-1c-.552 0-1-.448-1-1s.448-1 1-1h1c1.105 0 2-.895 2-2s-.895-2-2-2h-2V9c0-2.76-2.24-5-5-5-2.487 0-4.55 1.816-4.935 4.194C6.735 8.07 6.375 8 6 8c-1.657 0-3 1.343-3 3s1.343 3 3 3zm1.877 4.07l2.19-.588-1.603-1.603c-.39-.392-.39-1.025 0-1.416.39-.39 1.024-.39 1.415 0l1.602 1.604.587-2.19c.142-.534.69-.85 1.224-.708.534.143.85.692.707 1.225l-.586 2.19 2.19-.586c.534-.144 1.083.172 1.226.706.143.533-.174 1.082-.707 1.225l-2.19.588 1.603 1.603c.39.392.39 1.025 0 1.415-.39.39-1.024.39-1.415 0l-1.602-1.603-.587 2.19c-.142.534-.69.85-1.224.708-.534-.143-.85-.692-.707-1.225l.586-2.19-2.19.586c-.534.144-1.083-.172-1.226-.706-.143-.533.174-1.082.707-1.225z"/></svg>
